dist/img/case-bingel-03.svg

<svg viewBox="0 0 430 226" xmlns="http://www.w3.org/2000/svg" xmlns:xlink="http://www.w3.org/1999/xlink"><clipPath id="a" transform="translate(5 5)"><rect height="216" rx="12" width="420"/></clipPath><clipPath id="b" transform="translate(5 5)"><path d="m-510-136h1440v420h-1440z"/></clipPath><clipPath id="c" transform="translate(5 5)"><path d="m39 101a3 3 0 1 1 3-3 3 3 0 0 1 -3 3zm19 12h-24l6-8 2 2 6-8zm-26-24v28h28v-28zm28 32h-28a4 4 0 0 1 -4-4v-28a4 4 0 0 1 4-4h28a4 4 0 0 1 4 4v28a4 4 0 0 1 -4 4z"/></clipPath><clipPath id="d" transform="translate(5 5)"><path d="m285 110-10 10h20z"/></clipPath><g clip-path="url(#a)"><g clip-path="url(#b)"><path d="m0 0h430v226h-430z" fill="#3498db"/></g></g><text fill="#fff" font-family="OpenSans-Regular, Open Sans" font-size="21" transform="translate(33 57)">Bingel oefeningen</text><text fill="#fff" font-family="OpenSans-Regular, Open Sans" font-size="21" transform="translate(33 188)">In vergelijking tot 20 mln. vorig jaar.</text><path d="m33 152.5h364" fill="none" stroke="#2980b9" stroke-linecap="square" stroke-miterlimit="10" stroke-width="2"/><text fill="#fff" font-family="OpenSans-Bold, Open Sans" font-size="48" font-weight="700" transform="translate(89 126)">28 mln.</text><g clip-path="url(#c)"><g clip-path="url(#b)"><path d="m28 85h46v46h-46z" fill="#2980b9"/></g></g><text fill="#f1c40f" font-family="OpenSans-Bold, Open Sans" font-size="21" font-weight="700" transform="translate(307 126)">+37%</text><g clip-path="url(#d)"><g clip-path="url(#b)"><path d="m275 110h30v20h-30z" fill="#f1c40f"/></g></g></svg>

<svg xmlns="http://www.w3.org/2000/svg" xmlns:xlink="http://www.w3.org/1999/xlink" viewBox="0 0 430 226"><defs><style>.cls-1,.cls-6{fill:none;}.cls-2{clip-path:url(#clip-path);}.cls-3{clip-path:url(#clip-path-2);}.cls-4{fill:#3498db;}.cls-10,.cls-5{font-size:21px;}.cls-5,.cls-7{fill:#fff;}.cls-5{font-family:OpenSans-Regular, Open Sans;}.cls-6{stroke:#2980b9;stroke-linecap:square;stroke-miterlimit:10;stroke-width:2px;}.cls-7{font-size:48px;}.cls-10,.cls-7{font-family:OpenSans-Bold, Open Sans;font-weight:700;}.cls-8{clip-path:url(#clip-path-3);}.cls-9{fill:#2980b9;}.cls-10,.cls-12{fill:#f1c40f;}.cls-11{clip-path:url(#clip-path-5);}</style><clipPath id="clip-path" transform="translate(5 5)"><rect class="cls-1" width="420" height="216" rx="12"/></clipPath><clipPath id="clip-path-2" transform="translate(5 5)"><rect class="cls-1" x="-510" y="-136" width="1440" height="420"/></clipPath><clipPath id="clip-path-3" transform="translate(5 5)"><path class="cls-1" d="M39,101a3,3,0,1,1,3-3A3,3,0,0,1,39,101Zm19,12H34l6-8,2,2,6-8ZM32,89v28H60V89Zm28,32H32a4,4,0,0,1-4-4V89a4,4,0,0,1,4-4H60a4,4,0,0,1,4,4v28A4,4,0,0,1,60,121Z"/></clipPath><clipPath id="clip-path-5" transform="translate(5 5)"><polygon class="cls-1" points="285 110 275 120 295 120 285 110"/></clipPath></defs><g id="Layer_2" data-name="Layer 2"><g id="Layer_2-2" data-name="Layer 2"><g class="cls-2"><g class="cls-3"><rect class="cls-4" width="430" height="226"/></g></g><text class="cls-5" transform="translate(33 57)">Bingel oefeningen</text><text class="cls-5" transform="translate(33 188)">In vergelijking tot 20 mln. vorig jaar.</text><line class="cls-6" x1="33" y1="152.5" x2="397" y2="152.5"/><text class="cls-7" transform="translate(89 126)">28 mln.</text><g class="cls-8"><g class="cls-3"><rect class="cls-9" x="28" y="85" width="46" height="46"/></g></g><text class="cls-10" transform="translate(307 126)">+37%</text><g class="cls-11"><g class="cls-3"><rect class="cls-12" x="275" y="110" width="30" height="20"/></g></g></g></g></svg>
